X:910
T:AVANT DEUX DE PLEVENON
Z: Yves BELOTTEAU
M:6/8
L:1/8
Q:1/4=120
K:C 
|def g3/2 z/2 d|c3/2 z/2 B A3/2 z/2 G|cBc ded|cBc d5/2 z/2 |
def g3/2 z/2 d|c3/2 z/2 B A3/2 z/2 G|cBc d3/2 z/2 e|fed c5/2 z/2 |
def g3/2 z/2 d|c3/2 z/2 B A3/2 z/2 G|cBc ded|cBc d5/2 z/2 |
def g3/2 z/2 d|c3/2 z/2 B A3/2 z/2 G|cBc d3/2 z/2 e|fed c5/2 z/2 |
cde cde|cde d5/2 z/2 |cde cde|cde d5/2 z/2 |
def g3/2 z/2 a|g3/2 z/2 f e3/2 z/2 d|cBc d3/2 z/2 e|fed c5/2|
